static/images/icons/donate.svg

<svg width="650" height="650" fill="none" xmlns="http://www.w3.org/2000/svg"><path d="M0 325C0 81.25 81.25 0 325 0s325 81.25 325 325-81.25 325-325 325S0 568.75 0 325z" fill="#266DD3"/><path d="M519 373.829C407.859 437.761 318.033 350.728 202.938 471L130 309.264l22.724-23.733 61.705 136.364-.032.114c120.671-90.763 181.452-19.077 293.517-74.022 4.765 10.512 9.157 21.608 11.086 25.842zm-144.319-100.74c-7.618-17.763-28.899-29.638-47.523-26.54-18.639 3.099-27.586 20.002-19.952 37.766 8.071 18.736 31.136 30.741 50.148 26.004 16.825-4.169 24.588-20.31 17.327-37.23zm-23.47 22.111l1.686 3.715-3.533.73-1.573-3.553c-3.646.665-7.812.568-11.653-.438l-1.054-6.278c3.161.487 7.099.941 10.098.324l2.026-.665c3.582-1.768 2.48-6.278-2.853-7.348-3.955-.876-14.474-.227-18.396-8.955-2.205-4.932-.568-10.074 5.77-12.426l-1.751-3.877 3.518-.73 1.685 3.715c2.577-.422 5.592-.584 9.126-.276l1.41 6.213c-2.739-.341-5.722-.665-8.299-.13l-.972.26c-5.009 1.33-3.404 6.083 1.037 7.235 7.342 1.703 16.111 2.255 19.58 9.928 2.787 6.245-.454 10.512-5.852 12.556zm91.48-78.143l39.176 84.534c-69.356 37.052-159.993-5.515-243.125 40.572l-37.49-82.165c62.775-43.703 149.068-.568 241.439-42.941zM457.311 179c-100.151 64.954-210.822-5.159-290.956 72.254L227.38 384.6c85.871-72.87 202.912-3.86 290.972-72.27L457.311 179z" fill="#fff"/></svg>

<svg width="650" height="650" viewBox="0 0 650 650" fill="none" xmlns="http://www.w3.org/2000/svg">
<path d="M0 325C0 81.25 81.25 0 325 0C568.75 0 650 81.25 650 325C650 568.75 568.75 650 325 650C81.25 650 0 568.75 0 325Z" fill="#266DD3"/>
<path d="M519 373.829C407.859 437.761 318.033 350.728 202.938 471L130 309.264L152.724 285.531L214.429 421.895L214.397 422.009C335.068 331.246 395.849 402.932 507.914 347.987C512.679 358.499 517.071 369.595 519 373.829ZM374.681 273.089C367.063 255.326 345.782 243.451 327.158 246.549C308.519 249.648 299.572 266.551 307.206 284.315C315.277 303.051 338.342 315.056 357.354 310.319C374.179 306.15 381.942 290.009 374.681 273.089ZM351.211 295.2L352.897 298.915L349.364 299.645L347.791 296.092C344.145 296.757 339.979 296.66 336.138 295.654L335.084 289.376C338.245 289.863 342.183 290.317 345.182 289.7L347.208 289.035C350.79 287.267 349.688 282.757 344.355 281.687C340.4 280.811 329.881 281.46 325.959 272.732C323.754 267.8 325.391 262.658 331.729 260.306L329.978 256.429L333.496 255.699L335.181 259.414C337.758 258.992 340.773 258.83 344.307 259.138L345.717 265.351C342.978 265.01 339.995 264.686 337.418 265.221L336.446 265.481C331.437 266.811 333.042 271.564 337.483 272.716C344.825 274.419 353.594 274.971 357.063 282.644C359.85 288.889 356.609 293.156 351.211 295.2ZM442.691 217.057L481.867 301.591C412.511 338.643 321.874 296.076 238.742 342.163L201.252 259.998C264.027 216.295 350.32 259.43 442.691 217.057ZM457.311 179C357.16 243.954 246.489 173.841 166.355 251.254L227.38 384.6C313.251 311.73 430.292 380.74 518.352 312.33L457.311 179Z" fill="white"/>
</svg>
